X: 08028
T: DAVE'S HAMBO
C: Bob McQuillen 30 Aug 90
B: Bob's Note Book 8 #28
%R: hambo
Z: 2021 John Chambers <jc:trillian.mit.edu>
M: 3/4
L: 1/8
K: G	% and Em
GA \
| B2 BA GB | d2 dc Bd | e2 c3 e | d4 Bd | ed cd ef | g2 d2 ga | b2 ba gb | ag fe dc |
| B2 BA GB | d2 dc Bd | ed ef ga | b4 gf | ed cd ef | g2 d2 Bd | (3(cdc) B2 A2 | G4 |]
[| B,2 \
| E2 E2 B,2 | D2 D2 B,D | ED EF GA | B2 B,2 B,2 | E2 E2 B,2 | E2 E2 GF | ED EF GA | Bd B2 Bd |
| e2 ed BG | B2 A2 BA | G2 GB GE | D4 ED | B,2 EF GE | B,2 E2 GA | BA G2 F2 | E4 |]
%%begintext align
%% Dave Kaynor
%% of Montague, MA, is one of New England's great
%% dance musicians & callers. Dave loves Swedish
%% music, so I thought he might like this tune.
%% (maybe he won't!)
%%endtext

%%sep 1 1 500

%%sep 1 1 500

